assets/Person tipping hand/Dark/Flat/person_tipping_hand_flat_dark.svg

<svg width="32" height="32" viewBox="0 0 32 32" fill="none" xmlns="http://www.w3.org/2000/svg">
<path d="M22 30V29.6161C22 24.311 17.5255 20 12 20C6.47447 20.0098 2 24.311 2 29.6161V30H22Z" fill="#FF6723"/>
<path d="M25 17L23.0039 16.7852L21 17C20.8619 17 20.75 17.1119 20.75 17.25V18L23.0039 18.2969L25.25 18V17.25C25.25 17.1119 25.1381 17 25 17Z" fill="#FF6723"/>
<path d="M26 30V18.91C26 18.41 25.6126 18 25.1402 18H20.8598C20.3874 18 20 18.41 20 18.91V30H26Z" fill="#FF8101"/>
<path d="M8 12.6575C8 13.7621 7.10457 14.6575 6 14.6575C4.89543 14.6575 4 13.7621 4 12.6575C4 11.553 4.89543 10.6575 6 10.6575C7.10457 10.6575 8 11.553 8 12.6575Z" fill="#4E3233"/>
<path d="M20 12.6575C20 13.7621 19.1046 14.6575 18 14.6575C16.8954 14.6575 16 13.7621 16 12.6575C16 11.553 16.8954 10.6575 18 10.6575C19.1046 10.6575 20 11.553 20 12.6575Z" fill="#4E3233"/>
<path d="M12 23.5C10.619 23.5 9.5 22.2845 9.5 20.7845V19H14.5V20.7845C14.5 22.2845 13.381 23.5 12 23.5Z" fill="#452829"/>
<path d="M4.83337 14.1666C5.15083 14.3954 5.54105 14.5367 5.95771 14.5501L6.07015 16.3666C6.1429 16.8914 6.2884 17.3825 6.50004 17.8333C5.49475 17.4229 4.83337 16.4339 4.83337 15.3238V14.1666Z" fill="black"/>
<path d="M19.1666 14.1666C18.8492 14.3954 18.459 14.5367 18.0423 14.5501L17.9299 16.3666C17.8571 16.8914 17.7116 17.3825 17.5 17.8333C18.5052 17.4229 19.1666 16.4339 19.1666 15.3238V14.1666Z" fill="black"/>
<path d="M13.3773 3.5H10.6127C7.51508 3.5 5.17684 6.09333 5.53657 9.30667L6.00288 16.4333C6.32264 18.86 8.38775 20.6667 10.8326 20.6667H12.005H13.1775C15.6223 20.6667 17.6874 18.86 18.0072 16.4333L18.4535 9.30667C18.8665 6.23333 16.475 3.5 13.3773 3.5Z" fill="#573739"/>
<path d="M18.0343 4.74C18.6738 4.96 19.2473 5.40667 19.6099 6.04667C20.19 7.06667 20.1043 8.28667 19.478 9.18667C19.2605 9.50667 19.1418 9.88667 19.1418 10.2733V11.0244C18.9093 10.8625 18.6408 10.7486 18.3507 10.6973L18.4101 9.42C18.3969 8.46667 17.6454 7.68 16.6961 7.64H14.9557C13.7691 7.64 12.6945 6.94 12.2067 5.84667C12.0815 5.53333 11.7782 5.32667 11.442 5.32667H9.85986C7.56574 5.32667 5.70671 7.20667 5.70671 9.52667V10.688C5.39105 10.7344 5.09936 10.8545 4.84972 11.0304V10.2733C4.84972 9.88667 4.73105 9.50667 4.51351 9.18667C3.9202 8.31333 3.81473 7.14 4.33552 6.14667C4.69809 5.46 5.28481 4.98 5.95063 4.74667C6.6626 4.49333 7.26909 4.01333 7.67122 3.36667C8.18542 2.54667 9.08856 2 10.1236 2C10.5257 2 10.908 2.08667 11.264 2.23333C11.7387 2.44 12.2726 2.44 12.7473 2.23333C13.0967 2.08667 13.479 2 13.8812 2C14.9293 2 15.8457 2.56667 16.3533 3.40667C16.7356 4.04 17.3355 4.5 18.0343 4.74Z" fill="black"/>
<path d="M11.5545 12.3682L10.9312 14.5844C10.7967 15.0355 11.1145 15.5 11.5545 15.5H12.4956C12.9355 15.5 13.2533 15.0355 13.1189 14.5844L12.4833 12.3682C12.3367 11.8773 11.7012 11.8773 11.5545 12.3682Z" fill="#3D2123"/>
<path d="M11.9979 16.9893C11.3208 16.9893 10.7084 16.7585 10.2535 16.5176C10.0906 16.4313 9.91723 16.67 10.0433 16.8199C10.5098 17.3746 11 17.9993 11.9979 17.9993C12.9958 17.9993 13.5121 17.4468 13.961 16.9035C14.0871 16.7509 13.881 16.4937 13.7154 16.5776C13.2804 16.7982 12.6966 16.9893 11.9979 16.9893Z" fill="#290118"/>
<path d="M10.2706 13C10.6151 13 10.8966 12.7027 10.7658 12.384C10.4807 11.6893 9.79747 11.2 8.99999 11.2C8.20251 11.2 7.51931 11.6893 7.23416 12.384C7.10334 12.7027 7.3849 13 7.72941 13H10.2706Z" fill="white"/>
<path d="M13.7779 13C13.4334 13 13.1519 12.7027 13.2827 12.384C13.5678 11.6893 14.251 11.2 15.0485 11.2C15.846 11.2 16.5292 11.6893 16.8144 12.384C16.9452 12.7027 16.6636 13 16.3191 13H13.7779Z" fill="white"/>
<path d="M8.09998 12.7C8.09998 12.8036 8.1131 12.9041 8.13778 13H10.2706C10.3408 13 10.4085 12.9876 10.4706 12.9652C10.4898 12.8799 10.5 12.7911 10.5 12.7C10.5 12.0373 9.96272 11.5 9.29998 11.5C8.63723 11.5 8.09998 12.0373 8.09998 12.7Z" fill="#7D4533"/>
<path d="M15.9485 12.7C15.9485 12.8036 15.9353 12.9041 15.9107 13H13.7779C13.7076 13 13.64 12.9876 13.5779 12.9652C13.5586 12.8799 13.5485 12.7911 13.5485 12.7C13.5485 12.0373 14.0857 11.5 14.7485 11.5C15.4112 11.5 15.9485 12.0373 15.9485 12.7Z" fill="#7D4533"/>
<path d="M8.58002 12.7154C8.58002 12.8087 8.59774 12.8979 8.63007 12.98H10.03C10.0623 12.8979 10.08 12.8087 10.08 12.7154C10.08 12.3093 9.74423 11.98 9.33002 11.98C8.9158 11.98 8.58002 12.3093 8.58002 12.7154Z" fill="black"/>
<path d="M15.4685 12.73C15.4685 12.8252 15.4508 12.9162 15.4185 13H14.0186C13.9862 12.9162 13.9685 12.8252 13.9685 12.73C13.9685 12.3158 14.3043 11.98 14.7185 11.98C15.1327 11.98 15.4685 12.3158 15.4685 12.73Z" fill="black"/>
<path d="M9.00001 12.4C9.1657 12.4 9.30001 12.2657 9.30001 12.1C9.30001 11.9343 9.1657 11.8 9.00001 11.8C8.83433 11.8 8.70001 11.9343 8.70001 12.1C8.70001 12.2657 8.83433 12.4 9.00001 12.4Z" fill="white"/>
<path d="M15.0485 12.4C14.8828 12.4 14.7485 12.2657 14.7485 12.1C14.7485 11.9343 14.8828 11.8 15.0485 11.8C15.2142 11.8 15.3485 11.9343 15.3485 12.1C15.3485 12.2657 15.2142 12.4 15.0485 12.4Z" fill="white"/>
<path d="M8.05833 10.7182C8.17909 10.5994 8.4124 10.4562 8.73435 10.3427C9.0509 10.2311 9.43073 10.1562 9.82812 10.1562C10.0093 10.1563 10.1562 10.0094 10.1562 9.82813C10.1563 9.64692 10.0094 9.5 9.82813 9.5C9.35119 9.49999 8.89769 9.58923 8.51615 9.72374C8.14002 9.85635 7.8105 10.0413 7.59792 10.2506C7.46879 10.3777 7.46717 10.5855 7.5943 10.7146C7.72144 10.8438 7.92919 10.8454 8.05833 10.7182Z" fill="black"/>
<path d="M16.0979 10.7182C15.9772 10.5994 15.7438 10.4562 15.4219 10.3427C15.1054 10.2311 14.7255 10.1562 14.3281 10.1562C14.1469 10.1563 14 10.0094 14 9.82813C14 9.64692 14.1469 9.5 14.3281 9.5C14.8051 9.49999 15.2586 9.58923 15.6401 9.72374C16.0162 9.85635 16.3458 10.0413 16.5583 10.2506C16.6875 10.3777 16.6891 10.5855 16.5619 10.7146C16.4348 10.8438 16.2271 10.8454 16.0979 10.7182Z" fill="black"/>
<path d="M22.7197 12.6412C23.0126 12.3483 23.4874 12.3483 23.7803 12.6412C24.0732 12.9341 24.0732 13.409 23.7803 13.7019L23.4822 14C23.4822 14 27.8736 13.3611 28.5247 13.25C28.8205 13.2055 29.2586 13.25 29.2586 13.6913C29.5972 13.7195 29.8846 13.9766 29.9374 14.3272C29.9793 14.606 29.862 14.872 29.6537 15.0329C29.615 15.3603 29.362 15.6346 29.0203 15.686L28.861 15.71C28.8774 16.0883 28.606 16.4257 28.2232 16.4833C28.2232 16.4833 25.5 16.75 25 17H21V15.5C21 15 21.2116 14.2884 21.5 14L22.7197 12.6412Z" fill="#573739"/>
<path d="M29.2586 13.6831C29.258 13.6384 29.2529 13.5979 29.2439 13.5612L24.4823 14.3266C24.4482 14.3318 24.4247 14.3636 24.4298 14.3977C24.435 14.4319 24.4668 14.4554 24.5009 14.4502C24.5351 14.4451 29.2586 13.6913 29.2586 13.6913C29.2567 13.6884 29.2568 13.6857 29.2586 13.6831Z" fill="#341A1C"/>
<path d="M29.7658 14.9262C29.7332 14.9643 29.6968 14.9992 29.6571 15.0303L29.6339 14.8978C29.5774 14.5223 29.2272 14.2638 28.8517 14.3203L25.0093 14.8986C24.9752 14.9037 24.9433 14.8802 24.9382 14.8461C24.9331 14.8119 24.9566 14.7801 24.9907 14.775L28.8331 14.1967C29.2766 14.1299 29.6903 14.4351 29.7574 14.8784L29.7658 14.9262Z" fill="#341A1C"/>
<path d="M28.9471 15.6971L28.861 15.71C28.8625 15.7446 28.8616 15.7788 28.8584 15.8125L28.7926 15.6464L28.7915 15.6393C28.735 15.2638 28.3848 15.0053 28.0093 15.0618L25.7303 15.3939C25.6962 15.3989 25.6645 15.3752 25.6595 15.3411C25.6545 15.3069 25.6782 15.2752 25.7123 15.2702L27.9907 14.9382C28.432 14.8718 28.8438 15.1737 28.914 15.6135L28.9471 15.6971Z" fill="#341A1C"/>
</svg>

<svg xmlns="http://www.w3.org/2000/svg" width="32" height="32" fill="none"><path fill="#FF6723" d="M22 30v-.384C22 24.311 17.526 20 12 20c-5.526.01-10 4.311-10 9.616V30h20ZM25 17l-1.996-.215L21 17a.25.25 0 0 0-.25.25V18l2.254.297L25.25 18v-.75A.25.25 0 0 0 25 17Z"/><path fill="#FF8101" d="M26 30V18.91c0-.5-.387-.91-.86-.91h-4.28c-.473 0-.86.41-.86.91V30h6Z"/><path fill="#4E3233" d="M8 12.658a2 2 0 1 1-4 0 2 2 0 0 1 4 0ZM20 12.658a2 2 0 1 1-4 0 2 2 0 0 1 4 0Z"/><path fill="#452829" d="M12 23.5c-1.381 0-2.5-1.215-2.5-2.715V19h5v1.785c0 1.5-1.119 2.715-2.5 2.715Z"/><path fill="#000" d="M4.833 14.167c.318.228.708.37 1.125.383l.112 1.817a5.08 5.08 0 0 0 .43 1.466 2.7 2.7 0 0 1-1.667-2.51v-1.156ZM19.167 14.167c-.318.228-.708.37-1.125.383l-.112 1.817a5.084 5.084 0 0 1-.43 1.466 2.7 2.7 0 0 0 1.667-2.51v-1.156Z"/><path fill="#573739" d="M13.377 3.5h-2.764c-3.098 0-5.436 2.593-5.076 5.807l.466 7.126a4.867 4.867 0 0 0 4.83 4.234h2.344a4.867 4.867 0 0 0 4.83-4.234l.446-7.126A5.125 5.125 0 0 0 13.377 3.5Z"/><path fill="#000" d="M18.034 4.74c.64.22 1.213.667 1.576 1.307.58 1.02.494 2.24-.132 3.14-.218.32-.336.7-.336 1.086v.751a1.99 1.99 0 0 0-.791-.327l.06-1.277a1.802 1.802 0 0 0-1.715-1.78h-1.74a3.01 3.01 0 0 1-2.75-1.793.825.825 0 0 0-.764-.52H9.86c-2.294 0-4.153 1.88-4.153 4.2v1.161a1.988 1.988 0 0 0-.857.342v-.757c0-.386-.119-.766-.336-1.086a2.971 2.971 0 0 1-.178-3.04 2.914 2.914 0 0 1 1.615-1.4 3.333 3.333 0 0 0 1.72-1.38 2.89 2.89 0 0 1 3.593-1.134 1.852 1.852 0 0 0 1.483 0c.35-.146.732-.233 1.134-.233a2.89 2.89 0 0 1 2.472 1.407 3.134 3.134 0 0 0 1.681 1.333Z"/><path fill="#3D2123" d="m11.555 12.368-.624 2.216c-.134.452.184.916.624.916h.94c.44 0 .758-.464.624-.916l-.636-2.216a.477.477 0 0 0-.928 0Z"/><path fill="#290118" d="M11.998 16.99c-.677 0-1.29-.231-1.744-.472-.163-.087-.337.152-.21.302.466.555.956 1.18 1.954 1.18s1.514-.553 1.963-1.096c.126-.153-.08-.41-.246-.326a3.791 3.791 0 0 1-1.717.411Z"/><path fill="#fff" d="M10.27 13c.345 0 .627-.297.496-.616a1.909 1.909 0 0 0-3.532 0c-.13.319.15.616.495.616h2.542ZM13.778 13c-.345 0-.626-.297-.495-.616a1.909 1.909 0 0 1 3.531 0c.131.319-.15.616-.495.616h-2.541Z"/><path fill="#7D4533" d="M8.1 12.7c0 .104.013.204.038.3h2.133a.59.59 0 0 0 .2-.035A1.2 1.2 0 1 0 8.1 12.7ZM15.948 12.7c0 .104-.013.204-.037.3h-2.133a.59.59 0 0 1-.2-.035 1.2 1.2 0 1 1 2.37-.265Z"/><path fill="#000" d="M8.58 12.715a.72.72 0 0 0 .05.265h1.4a.72.72 0 0 0 .05-.265.743.743 0 0 0-.75-.735c-.414 0-.75.33-.75.735ZM15.469 12.73a.749.749 0 0 1-.05.27h-1.4a.75.75 0 1 1 1.45-.27Z"/><path fill="#fff" d="M9 12.4a.3.3 0 1 0 0-.6.3.3 0 0 0 0 .6ZM15.049 12.4a.3.3 0 1 1 0-.6.3.3 0 0 1 0 .6Z"/><path fill="#000" d="M8.058 10.718c.121-.119.354-.262.676-.375a3.338 3.338 0 0 1 1.094-.187.328.328 0 1 0 0-.656c-.477 0-.93.09-1.312.224-.376.132-.705.317-.918.527a.328.328 0 1 0 .46.467ZM16.098 10.718c-.12-.119-.354-.262-.676-.375a3.338 3.338 0 0 0-1.094-.187.328.328 0 1 1 0-.656c.477 0 .93.09 1.312.224.376.132.706.317.918.527a.328.328 0 1 1-.46.467Z"/><path fill="#573739" d="M22.72 12.641a.75.75 0 1 1 1.06 1.06l-.298.299s4.392-.639 5.043-.75c.296-.044.734 0 .734.441a.75.75 0 0 1 .395 1.342.75.75 0 0 1-.634.653l-.159.024a.75.75 0 0 1-.638.773S25.5 16.75 25 17h-4v-1.5c0-.5.212-1.212.5-1.5l1.22-1.359Z"/><path fill="#341A1C" d="M29.259 13.683a.541.541 0 0 0-.015-.122l-4.762.766a.063.063 0 0 0 .019.123l4.758-.759c-.002-.003-.002-.005 0-.008ZM29.766 14.926a.76.76 0 0 1-.109.104l-.023-.132a.687.687 0 0 0-.782-.578l-3.843.579a.063.063 0 0 1-.018-.124l3.842-.578a.812.812 0 0 1 .924.681l.009.048Z"/><path fill="#341A1C" d="m28.947 15.697-.086.013a.743.743 0 0 1-.003.102l-.065-.166-.002-.007a.687.687 0 0 0-.782-.577l-2.279.332a.062.062 0 0 1-.018-.124l2.279-.332a.813.813 0 0 1 .923.675l.033.084Z"/></svg>
